svgs/sleep.svg

<svg xmlns="http://www.w3.org/2000/svg" width="24" height="24" fill="none" xmlns:v="https://vecta.io/nano"><path d="M3 2v2h6.125L3 11v2h9v-2H5.875L12 4V2H3zm11 6v2h4.188L14 15v2h7v-2h-4.156L21 10V8h-7zm-8 7v2h3.031L6 20v2h6v-2H9.031L12 17v-2H6z" fill="#000"/></svg>

<svg width="24" height="24" viewBox="0 0 24 24" fill="none" xmlns="http://www.w3.org/2000/svg">
<path d="M3 2V4H9.125L3 11V13H12V11H5.875L12 4V2H3ZM14 8V10H18.1875L14 15V17H21V15H16.8438L21 10V8H14ZM6 15V17H9.03125L6 20V22H12V20H9.03125L12 17V15H6Z" fill="black"/>
</svg>
